X: 17
T: Do you know Jack Adams's Parish
R: jig
M: 6/8
L: 1/8
Z: 2010 John Chambers <jc:trillian.mit.edu>
B: Longman ed. "Twenty Four Country Dances", p.33 London 1770
K: D
   A | d2A FED | fed e2A | d2A FED | FAA A2 :|
|: a | afa b2b | geg a2A | B2g fge | fdd d2 :|


%%sep 5 1 500

